**kern	**silbe	**harmony	**chordsym	**phrase	**timestamp	**leadinstrument
*ICvox	*	*M4/4	*M4/4	*	*	*
*C:	*	*C:	*C:	*	*	*
*M4/4	*	*	*	*	*	*
*clefG2	*	*	*	*	*	*
r;	.	1r;	r	.	0	r
=1	=1	=1	=1	=1	=1	=1
*	*	*>A2_intro	*>A2_intro	*>A2_intro	*>A2_intro	*>A2_intro
1r	.	1N	N	newline	0.302	drums
=2	=2	=2	=2	=2	=2	=2
1r	.	1N	N	.	.	drums
=3	=3	=3	=3	=3	=3	=3
1r	.	2CM	C:maj (C E G)	newline	3.529	guitar
.	.	2Am	A:min (A C E)	.	.	guitar
=4	=4	=4	=4	=4	=4	=4
1r	.	2FM	F:maj (F A C)	.	.	guitar
.	.	2GM	G:maj (G B D)	.	.	guitar
=5	=5	=5	=5	=5	=5	=5
1r	.	2CM	C:maj (C E G)	.	.	guitar
.	.	2Am	A:min (A C E)	.	.	guitar
=6	=6	=6	=6	=6	=6	=6
1r	.	2FM	F:maj (F A C)	.	.	guitar
.	.	2GM	G:maj (G B D)	.	.	guitar
=7	=7	=7	=7	=7	=7	=7
*	*	*>B_chorus	*>B_chorus	*>B_chorus	*>B_chorus	*>B_chorus
8c	Oh	2CM	C:maj (C E G)	newline	15.458	voice
8r	.	.	.	.	.	.
8c	Oh	.	.	.	.	.
8G	Oh	.	.	.	.	.
8A	Oh	2Am	A:min (A C E)	.	.	voice
16A	Oh	.	.	.	.	.
16[c	_	.	.	.	.	.
8c]	_	.	.	.	.	.
16c	Oh	.	.	.	.	.
16[A	_	.	.	.	.	.
=8	=8	=8	=8	=8	=8	=8
8A]	_	2FM	F:maj (F A C)	.	.	voice
8r	.	.	.	.	.	.
4r	.	.	.	.	.	.
8G	You	2GM	G:maj (G B D)	.	.	voice
8B	don't	.	.	.	.	.
8d	have	.	.	.	.	.
16f	to	.	.	.	.	.
16[e	go	.	.	.	.	.
=9	=9	=9	=9	=9	=9	=9
16e]	_	2CM	C:maj (C E G)	.	.	voice
8c	oh	.	.	.	.	.
16r	.	.	.	.	.	.
8r	.	.	.	.	.	.
8G	Oh	.	.	.	.	.
8A	Oh	2Am	A:min (A C E)	.	.	voice
16A	oh	.	.	.	.	.
16[c	_	.	.	.	.	.
8c]	_	.	.	.	.	.
16c	oh	.	.	.	.	.
16[A	_	.	.	.	.	.
=10	=10	=10	=10	=10	=10	=10
8A]	_	2FM	F:maj (F A C)	.	.	voice
8r	.	.	.	.	.	.
4r	.	.	.	.	.	.
8G	You	2GM	G:maj (G B D)	.	.	voice
8B	don't	.	.	.	.	.
8d	have	.	.	.	.	.
16f	to	.	.	.	.	.
16[e	go	.	.	.	.	.
=11	=11	=11	=11	=11	=11	=11
8e]	_	2CM	C:maj (C E G)	newline	27.385	voice
8c	oh	.	.	.	.	.
8r	.	.	.	.	.	.
8G	Oh	.	.	.	.	.
8A	Oh	2Am	A:min (A C E)	.	.	voice
8r	.	.	.	.	.	.
8c	Oh	.	.	.	.	.
16c	Oh	.	.	.	.	.
16[A	_	.	.	.	.	.
=12	=12	=12	=12	=12	=12	=12
8A]	_	2FM	F:maj (F A C)	.	.	voice
8r	.	.	.	.	.	.
4r	.	.	.	.	.	.
8B	You	2GM	G:maj (G B D)	.	.	voice
8B	don't	.	.	.	.	.
8G	have	.	.	.	.	.
8G	to	.	.	.	.	.
=13	=13	=13	=13	=13	=13	=13
4.[G	go	1Am	A:min (A C E)	.	.	voice
16G]	_	.	.	.	.	.
16[A	_	.	.	.	.	.
2A]	_	.	.	.	.	.
=14	=14	=14	=14	=14	=14	=14
1r	.	1Am	A:min (A C E)	.	.	voice
=15	=15	=15	=15	=15	=15	=15
8c	I	2CM	C:maj (C E G)	newline	39.239	voice
8r	.	.	.	.	.	.
8c	I	.	.	.	.	.
8G	I	.	.	.	.	.
8A	I	2Am	A:min (A C E)	.	.	voice
16A	I	.	.	.	.	.
16[c	_	.	.	.	.	.
8c]	_	.	.	.	.	.
16c	I	.	.	.	.	.
16[A	_	.	.	.	.	.
=16	=16	=16	=16	=16	=16	=16
4A]	_	2FM	F:maj (F A C)	.	.	voice
4r	.	.	.	.	.	.
8G	All	2GM	G:maj (G B D)	.	.	voice
8B	those	.	.	.	.	.
8d	tears	.	.	.	.	.
8f	I	.	.	.	.	.
=17	=17	=17	=17	=17	=17	=17
16e	cry	2CM	C:maj (C E G)	.	.	voice
8.c	_	.	.	.	.	.
8r	.	.	.	.	.	.
8G	I	.	.	.	.	.
8.A	I	2Am	A:min (A C E)	.	.	voice
16A	I	.	.	.	.	.
8.c	_	.	.	.	.	.
16c	I	.	.	.	.	.
=18	=18	=18	=18	=18	=18	=18
4A	_	2FM	F:maj (F A C)	.	.	voice
4r	.	.	.	.	.	.
8G	All	2GM	G:maj (G B D)	.	.	voice
8B	those	.	.	.	.	.
8d	tears	.	.	.	.	.
8f	I	.	.	.	.	.
=19	=19	=19	=19	=19	=19	=19
8e	cry	2CM	C:maj (C E G)	newline	51.133	voice
8c	_	.	.	.	.	.
8.r	.	.	.	.	.	.
8G	Oh	.	.	.	.	.
.	.	2Am	A:min (A C E)	.	.	voice
4A	Oh	.	.	.	.	.
8.c	I	.	.	.	.	.
=20	=20	=20	=20	=20	=20	=20
16c	I	2FM	F:maj (F A C)	.	.	voice
8.A	_	.	.	.	.	.
4r	.	.	.	.	.	.
8B	Ba-	2GM	G:maj (G B D)	.	.	voice
8B	-by	.	.	.	.	.
16A	please	.	.	.	.	.
8.G	_	.	.	.	.	.
=21	=21	=21	=21	=21	=21	=21
4r	.	1Am	A:min (A C E)	.	.	voice
8e	don't	.	.	.	.	.
4G	go	.	.	.	.	.
4.A	_	.	.	.	.	.
=22	=22	=22	=22	=22	=22	=22
1r	.	1Am	A:min (A C E)	.	.	voice
=23	=23	=23	=23	=23	=23	=23
*	*	*>C_verse	*>C_verse	*>C_verse	*>C_verse	*>C_verse
4r	.	1Am	A:min (A C E)	newline	62.874	voice
16r	.	.	.	.	.	.
16c	When	.	.	.	.	.
8d	I	.	.	.	.	.
8e	read	.	.	.	.	.
16g	the	.	.	.	.	.
16[e	let-	.	.	.	.	.
16e]	_	.	.	.	.	.
16e	-ter	.	.	.	.	.
16d	that	.	.	.	.	.
16c	you	.	.	.	.	.
=24	=24	=24	=24	=24	=24	=24
8.d	wrote	1GM	G:maj (G B D)	.	.	voice
8d	me	.	.	.	.	.
16c	it	.	.	.	.	.
16d	made	.	.	.	.	.
16c	me	.	.	.	.	.
8d	mad	.	.	.	.	.
8e	mad	.	.	.	.	.
16e	mad	.	.	.	.	.
8.d	_	.	.	.	.	.
=25	=25	=25	=25	=25	=25	=25
4r	.	1Am	A:min (A C E)	.	.	voice
16r	.	.	.	.	.	.
16c	When	.	.	.	.	.
8d	I	.	.	.	.	.
8e	read	.	.	.	.	.
8g	the	.	.	.	.	.
8e	words	.	.	.	.	.
16d	that	.	.	.	.	.
16[c	it	.	.	.	.	.
=26	=26	=26	=26	=26	=26	=26
16c]	_	1GM	G:maj (G B D)	.	.	voice
8d	told	.	.	.	.	.
16c	_	.	.	.	.	.
16d	me	.	.	.	.	.
16c	you	.	.	.	.	.
16d	made	.	.	.	.	.
16c	me	.	.	.	.	.
8d	sad	.	.	.	.	.
8e	sad	.	.	.	.	.
16e	sad	.	.	.	.	.
8.d	_	.	.	.	.	.
=27	=27	=27	=27	=27	=27	=27
4r	.	1Am	A:min (A C E)	newline	74.583	voice
16r	.	.	.	.	.	.
16E	But	.	.	.	.	.
16A	I	.	.	.	.	.
16[c	still	.	.	.	.	.
16c]	_	.	.	.	.	.
8e	love	.	.	.	.	.
16g	you	.	.	.	.	.
16e	so	.	.	.	.	.
8.d	_	.	.	.	.	.
=28	=28	=28	=28	=28	=28	=28
4r	.	1GM	G:maj (G B D)	.	.	voice
16r	.	.	.	.	.	.
16A	I	.	.	.	.	.
8c	can't	.	.	.	.	.
16e	let	.	.	.	.	.
8g	you	.	.	.	.	.
16e	go	.	.	.	.	.
4d	_	.	.	.	.	.
=29	=29	=29	=29	=29	=29	=29
4r	.	1FM	F:maj (F A C)	.	.	voice
16r	.	.	.	.	.	.
8.c	I	.	.	.	.	.
16c	love	.	.	.	.	.
8B	_	.	.	.	.	.
8.A	you	.	.	.	.	.
8r	.	.	.	.	.	.
=30	=30	=30	=30	=30	=30	=30
4r	.	1GM	G:maj (G B D)	.	.	voice
8cc	Ooh	.	.	.	.	.
8r	.	.	.	.	.	.
16cc	ba-	.	.	.	.	.
16cc	-by	.	.	.	.	.
16cc	I	.	.	.	.	.
8g	love	.	.	.	.	.
16a	ya	.	.	.	.	.
8cc	_	.	.	.	.	.
=31	=31	=31	=31	=31	=31	=31
*	*	*>B_chorus	*>B_chorus	*>B_chorus	*>B_chorus	*>B_chorus
4c	Oh	2CM	C:maj (C E G)	newline	86.307	voice
8c	oh	.	.	.	.	.
8G	oh	.	.	.	.	.
8.A	oh	2Am	A:min (A C E)	.	.	voice
16A	oh	.	.	.	.	.
8.c	_	.	.	.	.	.
16c	oh	.	.	.	.	.
=32	=32	=32	=32	=32	=32	=32
4A	_	2FM	F:maj (F A C)	.	.	voice
4r	.	.	.	.	.	.
8G	Ev-	2GM	G:maj (G B D)	.	.	voice
8B	-ery	.	.	.	.	.
8d	move	.	.	.	.	.
8f	I	.	.	.	.	.
=33	=33	=33	=33	=33	=33	=33
16e	make	2CM	C:maj (C E G)	.	.	voice
8c	_	.	.	.	.	.
16r	.	.	.	.	.	.
8r	.	.	.	.	.	.
8G	Oh	.	.	.	.	.
8.A	Oh	2Am	A:min (A C E)	.	.	voice
8.c	Oh	.	.	.	.	.
16c	Oh	.	.	.	.	.
16[A	_	.	.	.	.	.
=34	=34	=34	=34	=34	=34	=34
8A]	_	2FM	F:maj (F A C)	.	.	voice
8r	.	.	.	.	.	.
4[a	Oh	.	.	.	.	.
16a]	_	2GM	G:maj (G B D)	.	.	voice
8b	ev-	.	.	.	.	.
8a	-ery	.	.	.	.	.
16a	move	.	.	.	.	.
16g	_	.	.	.	.	.
16[g	I	.	.	.	.	.
=35	=35	=35	=35	=35	=35	=35
8g]	_	2CM	C:maj (C E G)	newline	97.954	voice
16g	make	.	.	.	.	.
16[a	_	.	.	.	.	.
8a]	_	.	.	.	.	.
16r	.	.	.	.	.	.
16[g	ache	.	.	.	.	.
8g]	_	2Am	A:min (A C E)	.	.	voice
16e	_	.	.	.	.	.
16d	_	.	.	.	.	.
4c	_	.	.	.	.	.
=36	=36	=36	=36	=36	=36	=36
4r	.	2FM	F:maj (F A C)	.	.	voice
8r	.	.	.	.	.	.
8[c	Oh	.	.	.	.	.
16c]	_	2GM	G:maj (G B D)	.	.	voice
8B	ba-	.	.	.	.	.
16[A	-by	.	.	.	.	.
16A]	_	.	.	.	.	.
16A	please	.	.	.	.	.
8G	_	.	.	.	.	.
=37	=37	=37	=37	=37	=37	=37
4r	.	1Am	A:min (A C E)	.	.	voice
8e	don't	.	.	.	.	.
4.G	go	.	.	.	.	.
4A	_	.	.	.	.	.
=38	=38	=38	=38	=38	=38	=38
1r	.	1Am	A:min (A C E)	.	.	voice
=39	=39	=39	=39	=39	=39	=39
4c	I	2CM	C:maj (C E G)	newline	109.715	voice
8c	I	.	.	.	.	.
8G	I	.	.	.	.	.
8A	I	2Am	A:min (A C E)	.	.	voice
16A	I	.	.	.	.	.
8.c	_	.	.	.	.	.
16c	I	.	.	.	.	.
16[A	_	.	.	.	.	.
=40	=40	=40	=40	=40	=40	=40
8A]	_	2FM	F:maj (F A C)	.	.	voice
8r	.	.	.	.	.	.
8.r	.	.	.	.	.	.
16G	You	.	.	.	.	.
8G	hurt	2GM	G:maj (G B D)	.	.	voice
8B	me	.	.	.	.	.
8d	to	.	.	.	.	.
8f	my	.	.	.	.	.
=41	=41	=41	=41	=41	=41	=41
16e	soul	2CM	C:maj (C E G)	.	.	voice
8.[c	_	.	.	.	.	.
8c]	_	.	.	.	.	.
16c	Oh	.	.	.	.	.
16[G-	_	.	.	.	.	.
8G-]	_	2Am	A:min (A C E)	.	.	voice
16A	oh	.	.	.	.	.
8c	_	.	.	.	.	.
8c	oh	.	.	.	.	.
16c	oh	.	.	.	.	.
=42	=42	=42	=42	=42	=42	=42
8A	_	2FM	F:maj (F A C)	.	.	voice
8r	.	.	.	.	.	.
8r	.	.	.	.	.	.
8[a	You	.	.	.	.	.
16a]	_	2GM	G:maj (G B D)	.	.	voice
8g	hurt	.	.	.	.	.
16f	me	.	.	.	.	.
8d	to	.	.	.	.	.
8[d	my	.	.	.	.	.
=43	=43	=43	=43	=43	=43	=43
8d]	_	2CM	C:maj (C E G)	newline	121.563	voice
16g	soul	.	.	.	.	.
16[e	_	.	.	.	.	.
16e]	_	.	.	.	.	.
16r	.	.	.	.	.	.
16e	oh	.	.	.	.	.
16d	_	.	.	.	.	.
4.c	_	2Am	A:min (A C E)	.	.	voice
8[d	oh	.	.	.	.	.
=44	=44	=44	=44	=44	=44	=44
8d]	_	2FM	F:maj (F A C)	.	.	voice
8e	_	.	.	.	.	.
8c	_	.	.	.	.	.
8r	.	.	.	.	.	.
8B	dar-	2GM	G:maj (G B D)	.	.	voice
8B	-ling	.	.	.	.	.
4G	please	.	.	.	.	.
=45	=45	=45	=45	=45	=45	=45
4r	.	1Am	A:min (A C E)	.	.	voice
8e	don't	.	.	.	.	.
4.G	go	.	.	.	.	.
4A	_	.	.	.	.	.
=46	=46	=46	=46	=46	=46	=46
2r	.	1Am	A:min (A C E)	.	.	voice
2r	.	.	.	.	.	.
=47	=47	=47	=47	=47	=47	=47
*	*	*>C_verse	*>C_verse	*>C_verse	*>C_verse	*>C_verse
4r	.	1Am	A:min (A C E)	newline	133.067	voice
16r	.	.	.	.	.	.
16c	When	.	.	.	.	.
8d	I	.	.	.	.	.
8e	read	.	.	.	.	.
16g	the	.	.	.	.	.
16[e	let-	.	.	.	.	.
16e]	_	.	.	.	.	.
8d	-ter	.	.	.	.	.
16[c	you	.	.	.	.	.
=48	=48	=48	=48	=48	=48	=48
8c]	_	1GM	G:maj (G B D)	.	.	voice
8d	sent	.	.	.	.	.
16d	me	.	.	.	.	.
16c	you	.	.	.	.	.
16d	made	.	.	.	.	.
16c	me	.	.	.	.	.
8d	mad	.	.	.	.	.
8e	mad	.	.	.	.	.
16e	mad	.	.	.	.	.
8.d	_	.	.	.	.	.
=49	=49	=49	=49	=49	=49	=49
4r	.	1Am	A:min (A C E)	.	.	voice
16r	.	.	.	.	.	.
8e	When	.	.	.	.	.
16g	I	.	.	.	.	.
8a	read	.	.	.	.	.
8cc	the	.	.	.	.	.
8a	news	.	.	.	.	.
16g	that	.	.	.	.	.
16[e	it	.	.	.	.	.
=50	=50	=50	=50	=50	=50	=50
8e]	_	1GM	G:maj (G B D)	.	.	voice
8g	broke	.	.	.	.	.
16d	me	.	.	.	.	.
16c	you	.	.	.	.	.
16d	made	.	.	.	.	.
16c	me	.	.	.	.	.
8d	sad	.	.	.	.	.
8e	sad	.	.	.	.	.
16e	sad	.	.	.	.	.
8.d	_	.	.	.	.	.
=51	=51	=51	=51	=51	=51	=51
4r	.	1Am	A:min (A C E)	newline	144.672	voice
16r	.	.	.	.	.	.
16E	But	.	.	.	.	.
16A	I	.	.	.	.	.
16[c	still	.	.	.	.	.
16c]	_	.	.	.	.	.
8e	love	.	.	.	.	.
16g	you	.	.	.	.	.
4g	so	.	.	.	.	.
=52	=52	=52	=52	=52	=52	=52
8.r	.	1GM	G:maj (G B D)	.	.	voice
16e	and	.	.	.	.	.
16g	I	.	.	.	.	.
8a	can't	.	.	.	.	.
8a	let	.	.	.	.	.
8cc	you	.	.	.	.	.
16a	go	.	.	.	.	.
8g	_	.	.	.	.	.
8r	.	.	.	.	.	.
=53	=53	=53	=53	=53	=53	=53
8r	.	1FM	F:maj (F A C)	.	.	voice
8a	I	.	.	.	.	.
16a	love	.	.	.	.	.
8.g	_	.	.	.	.	.
16d	you	.	.	.	.	.
8.c	_	.	.	.	.	.
8r	.	.	.	.	.	.
8r	.	.	.	.	.	.
=54	=54	=54	=54	=54	=54	=54
8r	.	1GM	G:maj (G B D)	.	.	voice
8cc	Ooh	.	.	.	.	.
8.r	.	.	.	.	.	.
16cc	uh	.	.	.	.	.
16cc	ba-	.	.	.	.	.
16cc	-by	.	.	.	.	.
16cc	I	.	.	.	.	.
8g	love	.	.	.	.	.
16a	ya	.	.	.	.	.
8cc	_	.	.	.	.	.
=55	=55	=55	=55	=55	=55	=55
*	*	*>B_chorus	*>B_chorus	*>B_chorus	*>B_chorus	*>B_chorus
1r	.	2CM	C:maj (C E G)	newline	156.252	guitar
.	.	2Am	A:min (A C E)	.	.	guitar
=56	=56	=56	=56	=56	=56	=56
1r	.	2FM	F:maj (F A C)	.	.	guitar
.	.	2GM	G:maj (G B D)	.	.	guitar
=57	=57	=57	=57	=57	=57	=57
1r	.	2CM	C:maj (C E G)	.	.	guitar
.	.	2Am	A:min (A C E)	.	.	guitar
=58	=58	=58	=58	=58	=58	=58
1r	.	2FM	F:maj (F A C)	.	.	guitar
.	.	2GM	G:maj (G B D)	.	.	guitar
=59	=59	=59	=59	=59	=59	=59
1r	.	2CM	C:maj (C E G)	newline	168.038	guitar
.	.	2Am	A:min (A C E)	.	.	guitar
=60	=60	=60	=60	=60	=60	=60
1r	.	2FM	F:maj (F A C)	.	.	guitar
.	.	2GM	G:maj (G B D)	.	.	guitar
=61	=61	=61	=61	=61	=61	=61
1r	.	1Am	A:min (A C E)	.	.	guitar
=62	=62	=62	=62	=62	=62	=62
1r	.	1Am	A:min (A C E)	.	.	guitar
=63	=63	=63	=63	=63	=63	=63
8c	Oh	2CM	C:maj (C E G)	newline	179.607	voice
8r	.	.	.	.	.	.
8c	oh	.	.	.	.	.
8G	oh	.	.	.	.	.
8.A	oh	2Am	A:min (A C E)	.	.	voice
16A	oh	.	.	.	.	.
8.c	_	.	.	.	.	.
16c	oh	.	.	.	.	.
=64	=64	=64	=64	=64	=64	=64
4A	_	2FM	F:maj (F A C)	.	.	voice
4r	.	.	.	.	.	.
8G	You	2GM	G:maj (G B D)	.	.	voice
8B	don't	.	.	.	.	.
8d	have	.	.	.	.	.
8f	to	.	.	.	.	.
=65	=65	=65	=65	=65	=65	=65
16e	go	2CM	C:maj (C E G)	.	.	voice
8.c	_	.	.	.	.	.
8r	.	.	.	.	.	.
8G	Oh	.	.	.	.	.
8A	oh	2Am	A:min (A C E)	.	.	voice
16r	.	.	.	.	.	.
4c	oh	.	.	.	.	.
16c	oh	.	.	.	.	.
=66	=66	=66	=66	=66	=66	=66
4A	_	2FM	F:maj (F A C)	.	.	voice
4r	.	.	.	.	.	.
8G	You	2GM	G:maj (G B D)	.	.	voice
8B	don't	.	.	.	.	.
8d	have	.	.	.	.	.
8f	to	.	.	.	.	.
=67	=67	=67	=67	=67	=67	=67
16e	go	2CM	C:maj (C E G)	newline	191.348	voice
8.[c	_	.	.	.	.	.
8c]	_	.	.	.	.	.
8G	Oh	.	.	.	.	.
8A	Oh	2Am	A:min (A C E)	.	.	voice
8r	.	.	.	.	.	.
8c	oh	.	.	.	.	.
16c	oh	.	.	.	.	.
16[A	_	.	.	.	.	.
=68	=68	=68	=68	=68	=68	=68
8A]	_	2FM	F:maj (F A C)	.	.	voice
8r	.	.	.	.	.	.
16r	.	.	.	.	.	.
8.[a	Oh	.	.	.	.	.
8a]	_	2GM	G:maj (G B D)	.	.	voice
8.g	ba-	.	.	.	.	.
16e	-by	.	.	.	.	.
8r	.	.	.	.	.	.
=69	=69	=69	=69	=69	=69	=69
4r	.	1Am	A:min (A C E)	.	.	voice
16g	Babe	.	.	.	.	.
8.e	_	.	.	.	.	.
8r	.	.	.	.	.	.
4e	please	.	.	.	.	.
8r	.	.	.	.	.	.
=70	=70	=70	=70	=70	=70	=70
4g	please	1Am	A:min (A C E)	.	.	voice
8r	.	.	.	.	.	.
16g	please	.	.	.	.	.
8.a	_	.	.	.	.	.
8r	.	.	.	.	.	.
16a	please	.	.	.	.	.
8.b	_	.	.	.	.	.
=71	=71	=71	=71	=71	=71	=71
*	*	*>B2_outro	*>B2_outro	*>B2_outro	*>B2_outro	*>B2_outro
8r	.	2CM	C:maj (C E G)	newline	202.922	guitar
16e	Uh	.	.	.	.	.
8c	oh	.	.	.	.	.
16d	uh	.	.	.	.	.
16c	oh	.	.	.	.	.
16r	.	.	.	.	.	.
16d#	uh	2Am	A:min (A C E)	.	.	guitar
8e	oh	.	.	.	.	.
8.c	ba-	.	.	.	.	.
8c	-by	.	.	.	.	.
=72	=72	=72	=72	=72	=72	=72
8r	.	2FM	F:maj (F A C)	.	.	guitar
16d	uh	.	.	.	.	.
8e-	oh	.	.	.	.	.
16c	I	.	.	.	.	.
16e-	rea-	.	.	.	.	.
16c	-lly	.	.	.	.	.
16g	love	2GM	G:maj (G B D)	.	.	guitar
8f	you	.	.	.	.	.
8e-	ba-	.	.	.	.	.
8.c	-by	.	.	.	.	.
=73	=73	=73	=73	=73	=73	=73
8r	.	2CM	C:maj (C E G)	.	.	guitar
16d	Ooh	.	.	.	.	.
8c	ooh	.	.	.	.	.
16d	ooh	.	.	.	.	.
16c	ooh	.	.	.	.	.
16r	.	.	.	.	.	.
8d	ooh	2Am	A:min (A C E)	.	.	guitar
8e-	oh	.	.	.	.	.
16c	dar-	.	.	.	.	.
16A	_	.	.	.	.	.
8[A	-lin'	.	.	.	.	.
=74	=74	=74	=74	=74	=74	=74
8A]	_	2FM	F:maj (F A C)	.	.	guitar
8r	.	.	.	.	.	.
4r	.	.	.	.	.	.
8.B	Oh	2GM	G:maj (G B D)	.	.	guitar
8.A	_	.	.	.	.	.
8[G	_	.	.	.	.	.
=75	=75	=75	=75	=75	=75	=75
4G]	_	2CM	C:maj (C E G)	newline	214.476	guitar
4r	.	.	.	.	.	.
8G	oh	2Am	A:min (A C E)	.	.	guitar
4.A	_	.	.	.	.	.
=76	=76	=76	=76	=76	=76	=76
4r	.	2FM	F:maj (F A C)	.	.	guitar
16r	.	.	.	.	.	.
16g	Oh	.	.	.	.	.
8[a	_	.	.	.	.	.
16a]	_	2GM	G:maj (G B D)	.	.	guitar
16r	.	.	.	.	.	.
8.b	ba-	.	.	.	.	.
16b	-by	.	.	.	.	.
8a	I	.	.	.	.	.
=77	=77	=77	=77	=77	=77	=77
16a	still	2CM	C:maj (C E G)	.	.	guitar
16g	_	.	.	.	.	.
8g	love	.	.	.	.	.
8g	you	.	.	.	.	.
4.e	so	.	.	.	.	.
.	.	2Am	A:min (A C E)	.	.	guitar
4r	.	.	.	.	.	.
=78	=78	=78	=78	=78	=78	=78
8r	.	2FM	F:maj (F A C)	.	.	guitar
4.cc	Oh	.	.	.	.	.
8.b	ba-	2GM	G:maj (G B D)	.	.	guitar
16a	-by	.	.	.	.	.
4a	I	.	.	.	.	.
=79	=79	=79	=79	=79	=79	=79
8g	still	2CM	C:maj (C E G)	newline	226.078	guitar
8g	love	.	.	.	.	.
8g	you	.	.	.	.	.
16g	so	.	.	.	.	.
16[a	_	.	.	.	.	.
4a]	_	2Am	A:min (A C E)	.	.	guitar
16r	.	.	.	.	.	.
16e-	Oh	.	.	.	.	.
16d	_	.	.	.	.	.
16[c	_	.	.	.	.	.
=80	=80	=80	=80	=80	=80	=80
4c]	_	2FM	F:maj (F A C)	.	.	guitar
4r	.	.	.	.	.	.
2d	Oh	2GM	G:maj (G B D)	.	.	guitar
=81	=81	=81	=81	=81	=81	=81
8r	.	2CM	C:maj (C E G)	.	.	guitar
8A	Oh	.	.	.	.	.
8c	Oh	.	.	.	.	.
8G	Oh	.	.	.	.	.
4A	Oh	2Am	A:min (A C E)	.	.	guitar
16A	oh	.	.	.	.	.
8c	_	.	.	.	.	.
16c	oh	.	.	.	.	.
=82	=82	=82	=82	=82	=82	=82
2A	_	2FM	F:maj (F A C)	.	.	guitar
4r	.	2GM	G:maj (G B D)	.	.	guitar
8A	Yeah	.	.	.	.	.
8G	_	.	.	.	.	.
=83	=83	=83	=83	=83	=83	=83
8r	.	2CM	C:maj (C E G)	newline	237.657	guitar
8c	Ah	.	.	.	.	.
8c	Ah	.	.	.	.	.
8G	ah	.	.	.	.	.
4A	ah	2Am	A:min (A C E)	.	.	guitar
16A	ah	.	.	.	.	.
8c	_	.	.	.	.	.
16c	ah	.	.	.	.	.
=84	=84	=84	=84	=84	=84	=84
4.A	_	2FM	F:maj (F A C)	.	.	guitar
8r	.	.	.	.	.	.
8r	.	2GM	G:maj (G B D)	.	.	guitar
8B-	Oh	.	.	.	.	.
8A	_	.	.	.	.	.
8A-	_	.	.	.	.	.
=85	=85	=85	=85	=85	=85	=85
8G	_	2CM	C:maj (C E G)	.	.	guitar
8r	.	.	.	.	.	.
8c	Ah	.	.	.	.	.
8G	ah	.	.	.	.	.
4A	ah	2Am	A:min (A C E)	.	.	guitar
16A	ah	.	.	.	.	.
8c	_	.	.	.	.	.
16r	.	.	.	.	.	.
=86	=86	=86	=86	=86	=86	=86
8c	ah	2FM	F:maj (F A C)	.	.	guitar
4A	_	.	.	.	.	.
8r	.	.	.	.	.	.
2r	.	2GM	G:maj (G B D)	.	.	guitar
=87	=87	=87	=87	=87	=87	=87
*	*	*>_fadeout	*>_fadeout	*>_fadeout	*>_fadeout	*>_fadeout
2[b-	Ooh	2CM	C:maj (C E G)	newline	249.035	guitar
4.b-]	_	2Am	A:min (A C E)	.	.	guitar
8[a	_	.	.	.	.	.
=88	=88	=88	=88	=88	=88	=88
2a]	_	2FM	F:maj (F A C)	.	.	guitar
4.b-	_	2GM	G:maj (G B D)	.	.	guitar
8cc	_	.	.	.	.	.
=89	=89	=89	=89	=89	=89	=89
16e	ooh	2CM	C:maj (C E G)	.	.	guitar
8.[e-	_	.	.	.	.	.
8e-]	_	.	.	.	.	.
16c	yeah	.	.	.	.	.
8.[A	_	.	.	.	.	.
.	.	2Am	A:min (A C E)	.	.	guitar
8A]	_	.	.	.	.	.
4r	.	.	.	.	.	.
=90	=90	=90	=90	=90	=90	=90
1r	.	2FM	F:maj (F A C)	.	.	guitar
.	.	2GM	G:maj (G B D)	.	.	guitar
r;	.	1r;	r	.	259.738	r
r;	.	1r;	r	.	263.236	r
*-	*-	*-	*-	*-	*-	*-
!!!BillboardChartDate: 1973/11/24
!!!BillboardPeak: 20
!!!BillboardWeeksOnChart: 16
!!!COC: Led Zeppelin
!!!ENC: Nathaniel Condit-Schultz
!!!EST: Awating manual error checking and editing.
!!!OTL: D'yer Mak'er
!!!RDF**chordsym: original McGill chord annotation + (implied pitch class set, with bass pitch in first position)
!!!RDF**harmony: **recip + pitch class of root + harmonic quality
!!!RDF**leadinstrument: original McGill primary instrumentation annotation
!!!RDF**phrase: newline = linebreak in original McGill transcription
!!!RDF**timestamp: McGill audio timestamp in seconds
!!!RDT: 2017/01/12/
!!!SampleActualRank: 40
!!!SampleID#: 0749
!!!SampleTargetRank: 39
